src/assets/updog-crying.svg

<svg fill="none" height="200" viewBox="0 0 739 725" width="200" xmlns="http://www.w3.org/2000/svg"><ellipse cx="376.5" cy="645.5" fill="#c4c4c4" fill-opacity=".5" rx="339.5" ry="53.5"/><path d="m76.2217 295.86s-66.53147-242.3574 110.8653-262.4674c116.59-13.2134 192.591 31.1567 230.987 63.1374 20.827 17.333 35.139 41.258 40.437 67.898 4.598 23.039 12.301 68.752 3.106 92.646 0 0 .182 28.319 75.392 88.344 0 0 59.893 32.255 87.937 83.98 28.044 51.724 18.482 120.69 18.482 120.69s-7.003 81.752-90.494 94.508c-83.492 12.786-105.141 0-105.141 0s-15.286-8.941 12.118-25.542c27.405-16.6 44.608-24.26 44.608-24.26s-117.259 7.019-156.752 5.737c0 0-10.2 59.384-64.369 65.152-54.169 5.767-3.197-68.966-3.197-68.966s-63.091 1.922-96.859-23.62c0 0 4.78 57.492-42.69 68.325-47.4702 10.834-62.7556-14.678-52.5856-23.619 10.2004-8.941 31.8496-22.978 31.8496-22.978l-21.9536-142.723s-17.8128-11.902-19.0003-130.242z" fill="#e4b652"/><path d="m74.2217 289.86s-66.53147-242.3574 110.8653-262.4674c116.59-13.2134 192.591 31.1567 230.987 63.1374 20.827 17.333 35.139 41.258 40.437 67.898 4.598 23.039 12.301 68.752 3.106 92.646 0 0 .182 28.319 75.392 88.344 0 0 59.893 32.255 87.937 83.98 28.044 51.724 18.482 120.69 18.482 120.69s-7.003 81.752-90.494 94.508c-83.492 12.786-105.141 0-105.141 0s-15.286-8.941 12.118-25.542c27.405-16.6 44.608-24.26 44.608-24.26s-117.259 7.019-156.752 5.737c0 0-10.2 59.384-64.369 65.152-54.169 5.767-3.197-68.966-3.197-68.966s-63.091 1.922-96.859-23.62c0 0 4.78 57.492-42.69 68.325-47.4702 10.834-62.7556-14.678-52.5856-23.619 10.2004-8.941 31.8496-22.978 31.8496-22.978l-21.9536-142.723s-17.8128-11.902-19.0003-130.242z" fill="#e4b652"/><path d="m645.476 526.602s13.93 13.056 38.135 21.691c24.205 8.605 10.507 27.145-1.25 30.153-11.545 2.937-40.228 15.373-74.908-47.717l20.316-10.557z" fill="#e4b652"/><path d="m76 295.463s192 75.037 385.5-36.963l24 35s-232.378 118.292-408.9822 33.113z" fill="#16d2aa"/><g fill="#c48f2c"><path d="m183.22 574s-1.217-54.175 2.072-60.732c3.289-6.556 12.037-2.417-2.072 60.732z"/><path d="m281 597s5.749-61.668 5.304-79.235c-.47-18.668 6.69 35.93-5.304 79.235z"/><path d="m348 601s5.913-66.418 14.962-73.55c9.048-7.162-14.962 73.55-14.962 73.55z"/><path d="m505 595s-37.06-10.775-35.923-42.273c1.137-31.497 26.981-58.727 26.981-58.727s-70.986 79.94 8.942 101z"/></g><path d="m240.907 434.234c18.678 0 33.82-16.152 33.82-36.077s-15.142-36.077-33.82-36.077-33.82 16.152-33.82 36.077 15.142 36.077 33.82 36.077z" fill="#fff"/><path d="m240.907 361.256c-20.86 0-37.785 16.926-37.785 37.785 0 20.86 16.925 37.785 37.785 37.785 20.859 0 37.785-16.925 37.785-37.785-.031-20.859-16.926-37.785-37.785-37.785zm0 70.325c-17.993 0-32.54-14.578-32.54-32.54 0-17.993 14.578-32.539 32.54-32.539 17.993 0 32.539 14.577 32.539 32.539s-14.577 32.54-32.539 32.54z" fill="#16d2aa"/><path d="m240.907 431.58c17.971 0 32.539-14.568 32.539-32.539s-14.568-32.54-32.539-32.54-32.54 14.569-32.54 32.54 14.569 32.539 32.54 32.539z" fill="#fff"/><path d="m224.561 406.909c1.037 1.281 2.44 1.952 4.208 1.952 1.769 0 3.142-.641 4.178-1.952 1.037-1.281 1.556-3.05 1.556-5.307v-11.71l6.251-3.751v15.644c0 4.056-1.128 7.167-3.354 9.332s-5.123 3.263-8.6 3.263c-3.507 0-6.374-1.098-8.63-3.293-2.257-2.196-3.386-5.307-3.386-9.332v-11.894l6.252-3.751v15.462c-.03 2.287.488 4.056 1.525 5.337z" fill="#16d2aa"/><path d="m262.102 388.672c1.952 1.677 2.928 4.239 2.928 7.685s-1.007 5.977-3.019 7.594c-2.013 1.616-5.093 2.409-9.21 2.409h-3.721v4.056l-6.252 3.751v-27.965h9.881c4.3-.031 7.411.793 9.393 2.47zm-4.605 11.009c.732-.854 1.128-2.073 1.128-3.69 0-1.616-.487-2.775-1.463-3.446s-2.501-1.006-4.544-1.006h-3.568v9.393h4.208c2.074 0 3.507-.427 4.239-1.251z" fill="#16d2aa"/><path d="m241.176 356.221s4.123 6.935.162 10.705c-3.929 3.771 2.046 1.247 2.046 1.247s3.636-6.903 0-11.952c.032 0-.747-2.748-2.208 0z" fill="#b5dfd5"/><path d="m236 359.228 2-.228v2.837l-2 .163z" fill="#b5dfd5"/><path d="m151.585 34.5348s-62.024 28.5945-89.3557 37.2605-42.1356 26.6595-37.3338 71.7097c4.8017 45.05 18.4426 59.884 28.2455 61.191 10.2182 1.323 23.8758-.414 27.5643-31.423s6.4798-69.03 28.2457-92.6133c12.68-13.6872 26.675-26.106 41.786-37.0785 1.236-.8533 2.354-1.8653 3.323-3.0099 2.559-2.9769 6.082-8.2691-2.475-6.0365z" fill="#544b43"/><path d="m166.5 179c8.56 0 15.5-7.387 15.5-16.5s-6.94-16.5-15.5-16.5-15.5 7.387-15.5 16.5 6.94 16.5 15.5 16.5z" fill="#1d1c1a"/><path d="m320.5 178c8.56 0 15.5-7.163 15.5-16s-6.94-16-15.5-16-15.5 7.163-15.5 16 6.94 16 15.5 16z" fill="#1d1c1a"/><path d="m150 204s39.704-40.847 93.544-42.93c53.84-2.082 83.456 42.93 83.456 42.93" stroke="#544b43" stroke-linecap="round" stroke-linejoin="round" stroke-width="3"/><path d="m239.428 182.162s-33.71-3.704-30.167 24.292c.161 1.647.781 3.215 1.788 4.523s2.361 2.302 3.904 2.868c3.822 1.224 10.171.761 20.21-6.019 1.096-.926 2.488-1.42 3.918-1.39 1.43.031 2.801.583 3.857 1.555 4.2 3.423 8.579 9.261 18.783 6.102 1.783-.57 3.418-1.531 4.789-2.815 1.37-1.284 2.44-2.858 3.134-4.609 1.384-3.078 1.72-6.531.955-9.821-.766-3.29-2.59-6.233-5.187-8.369-4.512-3.588-12.369-6.78-25.984-6.317z" fill="#544b43"/><path d="m239 207v20.91s28.256 12.998 29 12.039" stroke="#544b43" stroke-linecap="round" stroke-linejoin="round" stroke-width="3"/><path d="m239 228s-12.046 11.527-26 15" stroke="#544b43" stroke-linecap="round" stroke-linejoin="round" stroke-width="3"/><path d="m305.01 121s-1.841 13.362 43.99 36" stroke="#544b43" stroke-linecap="round" stroke-linejoin="round" stroke-width="3"/><path d="m166 118s-12.069 41.817-38 54" stroke="#544b43" stroke-linecap="round" stroke-linejoin="round" stroke-width="3"/><path d="m326 174s15.683 0 19.906 28.396c2.046 13.796 7.105 41.286-2.963 31.569-7.039-6.713-4.911-21.818-3.127-30.209 1.517-6.551.83-13.435-1.948-19.535-2.259-4.867-5.926-9.365-11.868-10.221z" fill="#28c7dd"/><path d="m317 176.985s11.497-1.895 14.957-3.537 1.478 1.761 1.478 1.761-16.273 4.836-16.435 1.776z" fill="#28c7dd"/><path d="m336.57 55.4728s-6.282-15.6462 22.853-1.6592c29.136 13.987 52.945 24.4233 80.234 30.413 27.288 5.9896 42.309 9.4076 45.937 33.7314 3.627 24.324-17.709 62.402-37.495 84.619-10.883 12.245-18.451 9.009-23.084 3.617-3.512-4.27-5.462-9.623-5.524-15.165-.665-18.021-5.825-35.583-15.004-51.07-9.547-15.962-42.293-69.2216-67.917-84.4862z" fill="#544b43"/><ellipse cx="170.5" cy="158" fill="#fff" rx="6.5" ry="7"/><ellipse cx="2" cy="2.01429" fill="#fff" rx="2" ry="2.01429" transform="matrix(-.198561 .980088 -.980089 -.19856 162.742 160.8)"/><ellipse cx="315.867" cy="159.758" fill="#fff" rx="5" ry="6"/><ellipse cx="2" cy="1.96234" fill="#fff" rx="2" ry="1.96234" transform="matrix(-.198558 .980089 -.980088 -.198563 326.641 161.779)"/></svg>

<svg width="200" height="200" viewBox="0 0 739 725" fill="none" xmlns="http://www.w3.org/2000/svg">
<ellipse cx="376.5" cy="645.5" rx="339.5" ry="53.5" fill="#C4C4C4" fill-opacity="0.5"/>
<path d="M76.2217 295.86C76.2217 295.86 9.69023 53.5026 187.087 33.3926C303.677 20.1792 379.678 64.5493 418.074 96.53C438.901 113.863 453.213 137.788 458.511 164.428C463.109 187.467 470.812 233.18 461.617 257.074C461.617 257.074 461.799 285.393 537.009 345.418C537.009 345.418 596.902 377.673 624.946 429.398C652.99 481.122 643.428 550.088 643.428 550.088C643.428 550.088 636.425 631.84 552.934 644.596C469.442 657.382 447.793 644.596 447.793 644.596C447.793 644.596 432.507 635.655 459.911 619.054C487.316 602.454 504.519 594.794 504.519 594.794C504.519 594.794 387.26 601.813 347.767 600.531C347.767 600.531 337.567 659.915 283.398 665.683C229.229 671.45 280.201 596.717 280.201 596.717C280.201 596.717 217.11 598.639 183.342 573.097C183.342 573.097 188.122 630.589 140.652 641.422C93.1818 652.256 77.8964 626.744 88.0664 617.803C98.2668 608.862 119.916 594.825 119.916 594.825L97.9624 452.102C97.9624 452.102 80.1496 440.2 78.9621 321.86L76.2217 295.86Z" fill="#E4B652"/>
<path d="M74.2217 289.86C74.2217 289.86 7.69023 47.5026 185.087 27.3926C301.677 14.1792 377.678 58.5493 416.074 90.53C436.901 107.863 451.213 131.788 456.511 158.428C461.109 181.467 468.812 227.18 459.617 251.074C459.617 251.074 459.799 279.393 535.009 339.418C535.009 339.418 594.902 371.673 622.946 423.398C650.99 475.122 641.428 544.088 641.428 544.088C641.428 544.088 634.425 625.84 550.934 638.596C467.442 651.382 445.793 638.596 445.793 638.596C445.793 638.596 430.507 629.655 457.911 613.054C485.316 596.454 502.519 588.794 502.519 588.794C502.519 588.794 385.26 595.813 345.767 594.531C345.767 594.531 335.567 653.915 281.398 659.683C227.229 665.45 278.201 590.717 278.201 590.717C278.201 590.717 215.11 592.639 181.342 567.097C181.342 567.097 186.122 624.589 138.652 635.422C91.1818 646.256 75.8964 620.744 86.0664 611.803C96.2668 602.862 117.916 588.825 117.916 588.825L95.9624 446.102C95.9624 446.102 78.1496 434.2 76.9621 315.86L74.2217 289.86Z" fill="#E4B652"/>
<path d="M645.476 526.602C645.476 526.602 659.406 539.658 683.611 548.293C707.816 556.898 694.118 575.438 682.361 578.446C670.816 581.383 642.133 593.819 607.453 530.729L627.769 520.172L645.476 526.602Z" fill="#E4B652"/>
<path d="M76 295.463C76 295.463 268 370.5 461.5 258.5L485.5 293.5C485.5 293.5 253.122 411.792 76.5178 326.613L76 295.463Z" fill="#16D2AA"/>
<path d="M183.22 574C183.22 574 182.003 519.825 185.292 513.268C188.581 506.712 197.329 510.851 183.22 574Z" fill="#C48F2C"/>
<path d="M281 597C281 597 286.749 535.332 286.304 517.765C285.834 499.097 292.994 553.695 281 597Z" fill="#C48F2C"/>
<path d="M348 601C348 601 353.913 534.582 362.962 527.45C372.01 520.288 348 601 348 601Z" fill="#C48F2C"/>
<path d="M505 595C505 595 467.94 584.225 469.077 552.727C470.214 521.23 496.058 494 496.058 494C496.058 494 425.072 573.94 505 595Z" fill="#C48F2C"/>
<path d="M240.907 434.234C259.585 434.234 274.727 418.082 274.727 398.157C274.727 378.232 259.585 362.08 240.907 362.08C222.229 362.08 207.087 378.232 207.087 398.157C207.087 418.082 222.229 434.234 240.907 434.234Z" fill="white"/>
<path d="M240.907 361.256C220.047 361.256 203.122 378.182 203.122 399.041C203.122 419.901 220.047 436.826 240.907 436.826C261.766 436.826 278.692 419.901 278.692 399.041C278.661 378.182 261.766 361.256 240.907 361.256ZM240.907 431.581C222.914 431.581 208.367 417.003 208.367 399.041C208.367 381.048 222.945 366.502 240.907 366.502C258.9 366.502 273.446 381.079 273.446 399.041C273.446 417.003 258.869 431.581 240.907 431.581Z" fill="#16D2AA"/>
<path d="M240.907 431.58C258.878 431.58 273.446 417.012 273.446 399.041C273.446 381.07 258.878 366.501 240.907 366.501C222.936 366.501 208.367 381.07 208.367 399.041C208.367 417.012 222.936 431.58 240.907 431.58Z" fill="white"/>
<path d="M224.561 406.909C225.598 408.19 227.001 408.861 228.769 408.861C230.538 408.861 231.911 408.22 232.947 406.909C233.984 405.628 234.503 403.859 234.503 401.602V389.892L240.754 386.141V401.785C240.754 405.841 239.626 408.952 237.4 411.117C235.174 413.282 232.277 414.38 228.8 414.38C225.293 414.38 222.426 413.282 220.17 411.087C217.913 408.891 216.784 405.78 216.784 401.755V389.861L223.036 386.11V401.572C223.006 403.859 223.524 405.628 224.561 406.909Z" fill="#16D2AA"/>
<path d="M262.102 388.672C264.054 390.349 265.03 392.911 265.03 396.357C265.03 399.803 264.023 402.334 262.011 403.951C259.998 405.567 256.918 406.36 252.801 406.36H249.08V410.416L242.828 414.167V386.202H252.709C257.009 386.171 260.12 386.995 262.102 388.672ZM257.497 399.681C258.229 398.827 258.625 397.608 258.625 395.991C258.625 394.375 258.138 393.216 257.162 392.545C256.186 391.874 254.661 391.539 252.618 391.539H249.05V400.932H253.258C255.332 400.932 256.765 400.505 257.497 399.681Z" fill="#16D2AA"/>
<path d="M241.176 356.221C241.176 356.221 245.299 363.156 241.338 366.926C237.409 370.697 243.384 368.173 243.384 368.173C243.384 368.173 247.02 361.27 243.384 356.221C243.416 356.221 242.637 353.473 241.176 356.221Z" fill="#B5DFD5"/>
<path d="M236 359.228L238 359V361.837L236 362V359.228Z" fill="#B5DFD5"/>
<path d="M151.585 34.5348C151.585 34.5348 89.561 63.1293 62.2293 71.7953C34.8976 80.4613 20.0937 98.4548 24.8955 143.505C29.6972 188.555 43.3381 203.389 53.141 204.696C63.3592 206.019 77.0168 204.282 80.7053 173.273C84.3938 142.264 87.1851 104.243 108.951 80.6597C121.631 66.9725 135.626 54.5537 150.737 43.5812C151.973 42.7279 153.091 41.7159 154.06 40.5713C156.619 37.5944 160.142 32.3022 151.585 34.5348Z" fill="#544B43"/>
<path d="M166.5 179C175.06 179 182 171.613 182 162.5C182 153.387 175.06 146 166.5 146C157.94 146 151 153.387 151 162.5C151 171.613 157.94 179 166.5 179Z" fill="#1D1C1A"/>
<path d="M320.5 178C329.06 178 336 170.837 336 162C336 153.163 329.06 146 320.5 146C311.94 146 305 153.163 305 162C305 170.837 311.94 178 320.5 178Z" fill="#1D1C1A"/>
<path d="M150 204C150 204 189.704 163.153 243.544 161.07C297.384 158.988 327 204 327 204" stroke="#544B43" stroke-width="3" stroke-linecap="round" stroke-linejoin="round"/>
<path d="M239.428 182.162C239.428 182.162 205.718 178.458 209.261 206.454C209.422 208.101 210.042 209.669 211.049 210.977C212.056 212.285 213.41 213.279 214.953 213.845C218.775 215.069 225.124 214.606 235.163 207.826C236.259 206.9 237.651 206.406 239.081 206.436C240.511 206.467 241.882 207.019 242.938 207.991C247.138 211.414 251.517 217.252 261.721 214.093C263.504 213.523 265.139 212.562 266.51 211.278C267.88 209.994 268.95 208.42 269.644 206.669C271.028 203.591 271.364 200.138 270.599 196.848C269.833 193.558 268.009 190.615 265.412 188.479C260.9 184.891 253.043 181.699 239.428 182.162Z" fill="#544B43"/>
<path d="M239 207V227.91C239 227.91 267.256 240.908 268 239.949" stroke="#544B43" stroke-width="3" stroke-linecap="round" stroke-linejoin="round"/>
<path d="M239 228C239 228 226.954 239.527 213 243" stroke="#544B43" stroke-width="3" stroke-linecap="round" stroke-linejoin="round"/>
<path d="M305.01 121C305.01 121 303.169 134.362 349 157" stroke="#544B43" stroke-width="3" stroke-linecap="round" stroke-linejoin="round"/>
<path d="M166 118C166 118 153.931 159.817 128 172" stroke="#544B43" stroke-width="3" stroke-linecap="round" stroke-linejoin="round"/>
<path d="M326 174C326 174 341.683 174 345.906 202.396C347.952 216.192 353.011 243.682 342.943 233.965C335.904 227.252 338.032 212.147 339.816 203.756C341.333 197.205 340.646 190.321 337.868 184.221C335.609 179.354 331.942 174.856 326 174Z" fill="#28C7DD"/>
<path d="M317 176.985C317 176.985 328.497 175.09 331.957 173.448C335.417 171.806 333.435 175.209 333.435 175.209C333.435 175.209 317.162 180.045 317 176.985Z" fill="#28C7DD"/>
<path d="M336.57 55.4728C336.57 55.4728 330.288 39.8266 359.423 53.8136C388.559 67.8006 412.368 78.2369 439.657 84.2266C466.945 90.2162 481.966 93.6342 485.594 117.958C489.221 142.282 467.885 180.36 448.099 202.577C437.216 214.822 429.648 211.586 425.015 206.194C421.503 201.924 419.553 196.571 419.491 191.029C418.826 173.008 413.666 155.446 404.487 139.959C394.94 123.997 362.194 70.7374 336.57 55.4728Z" fill="#544B43"/>
<ellipse cx="170.5" cy="158" rx="6.5" ry="7" fill="white"/>
<ellipse cx="2" cy="2.01429" rx="2" ry="2.01429" transform="matrix(-0.198561 0.980088 -0.980089 -0.19856 162.742 160.8)" fill="white"/>
<ellipse cx="315.867" cy="159.758" rx="5" ry="6" fill="white"/>
<ellipse cx="2" cy="1.96234" rx="2" ry="1.96234" transform="matrix(-0.198558 0.980089 -0.980088 -0.198563 326.641 161.779)" fill="white"/>
</svg>
